projects/ccf-eui/src/assets/icons/organ-icons/organ-icon-skin.svg

<svg width="64" height="64" viewBox="0 0 64 64" fill="currentColor" xmlns="http://www.w3.org/2000/svg">
<g clip-path="url(#clip0_1795_393)">
<path d="M21.44 48.2987C22.0291 48.2987 22.5066 47.8211 22.5066 47.232C22.5066 46.6429 22.0291 46.1653 21.44 46.1653C20.8509 46.1653 20.3733 46.6429 20.3733 47.232C20.3733 47.8211 20.8509 48.2987 21.44 48.2987Z" />
<path d="M11.136 48.2987C11.7251 48.2987 12.2027 47.8211 12.2027 47.232C12.2027 46.6429 11.7251 46.1653 11.136 46.1653C10.5469 46.1653 10.0693 46.6429 10.0693 47.232C10.0693 47.8211 10.5469 48.2987 11.136 48.2987Z" />
<path d="M42.0266 48.2987C42.6157 48.2987 43.0933 47.8211 43.0933 47.232C43.0933 46.6429 42.6157 46.1653 42.0266 46.1653C41.4375 46.1653 40.96 46.6429 40.96 47.232C40.96 47.8211 41.4375 48.2987 42.0266 48.2987Z" />
<path d="M52.3307 48.2987C52.9198 48.2987 53.3974 47.8211 53.3974 47.232C53.3974 46.6429 52.9198 46.1653 52.3307 46.1653C51.7416 46.1653 51.264 46.6429 51.264 47.232C51.264 47.8211 51.7416 48.2987 52.3307 48.2987Z" />
<path d="M31.744 48.2987C32.3331 48.2987 32.8107 47.8211 32.8107 47.232C32.8107 46.6429 32.3331 46.1653 31.744 46.1653C31.1549 46.1653 30.6774 46.6429 30.6774 47.232C30.6774 47.8211 31.1549 48.2987 31.744 48.2987Z" />
<path d="M21.44 54.6987C22.0291 54.6987 22.5066 54.2211 22.5066 53.632C22.5066 53.0429 22.0291 52.5653 21.44 52.5653C20.8509 52.5653 20.3733 53.0429 20.3733 53.632C20.3733 54.2211 20.8509 54.6987 21.44 54.6987Z" />
<path d="M11.136 54.6987C11.7251 54.6987 12.2027 54.2211 12.2027 53.632C12.2027 53.0429 11.7251 52.5653 11.136 52.5653C10.5469 52.5653 10.0693 53.0429 10.0693 53.632C10.0693 54.2211 10.5469 54.6987 11.136 54.6987Z" />
<path d="M42.0266 54.6987C42.6157 54.6987 43.0933 54.2211 43.0933 53.632C43.0933 53.0429 42.6157 52.5653 42.0266 52.5653C41.4375 52.5653 40.96 53.0429 40.96 53.632C40.96 54.2211 41.4375 54.6987 42.0266 54.6987Z" />
<path d="M52.3307 54.6987C52.9198 54.6987 53.3974 54.2211 53.3974 53.632C53.3974 53.0429 52.9198 52.5653 52.3307 52.5653C51.7416 52.5653 51.264 53.0429 51.264 53.632C51.264 54.2211 51.7416 54.6987 52.3307 54.6987Z" />
<path d="M31.744 54.6987C32.3331 54.6987 32.8107 54.2211 32.8107 53.632C32.8107 53.0429 32.3331 52.5653 31.744 52.5653C31.1549 52.5653 30.6774 53.0429 30.6774 53.632C30.6774 54.2211 31.1549 54.6987 31.744 54.6987Z" />
<path d="M57.3653 40.6613C56.8021 39.9945 56.1085 39.4498 55.3271 39.0609C54.5456 38.6721 53.6929 38.4471 52.8213 38.4C51.7176 38.4458 50.6446 38.7766 49.7066 39.36C48.9973 39.8171 48.1812 40.0817 47.3387 40.128C46.5286 40.0845 45.7463 39.8188 45.0773 39.36C44.1083 38.7587 42.9961 38.4273 41.856 38.4C40.5547 38.4 37.9093 40.1493 37.0987 40.1493C36.3334 40.0967 35.5964 39.8388 34.9653 39.4027L34.688 39.2533C33.8521 38.7183 32.8854 38.4232 31.8933 38.4C30.7896 38.4458 29.7166 38.7766 28.7787 39.36C28.0614 39.817 27.2385 40.0815 26.3893 40.128C25.5806 40.0782 24.7998 39.813 24.128 39.36C23.1465 38.7514 22.0187 38.4196 20.864 38.4C19.5627 38.4 16.896 40.1493 16.0853 40.1493C15.32 40.0967 14.583 39.8388 13.952 39.4027C13.0538 38.796 12.0055 38.449 10.9227 38.4C10.0859 38.4669 9.27289 38.7107 8.53737 39.1152C7.80186 39.5198 7.16059 40.0758 6.65599 40.7467C6.47939 40.9933 6.40722 41.2997 6.45515 41.5993C6.50308 41.8988 6.66724 42.1674 6.91199 42.3467C7.10244 42.4896 7.33525 42.5647 7.57332 42.56C7.76091 42.5609 7.94598 42.5168 8.11302 42.4315C8.28005 42.3461 8.42418 42.2219 8.53332 42.0693C8.82151 41.6747 9.18825 41.344 9.61047 41.098C10.0327 40.852 10.5012 40.6961 10.9867 40.64C11.6545 40.7006 12.2947 40.9361 12.8427 41.3227C13.8277 41.9688 14.9719 42.3305 16.1493 42.368C17.5645 42.0887 18.9257 41.5846 20.1813 40.8747C20.4545 40.7682 20.7422 40.7035 21.0347 40.6827C21.3546 40.666 21.6744 40.7169 21.9733 40.832L22.2933 40.9813L22.9973 41.344C24.0107 41.997 25.1842 42.3587 26.3893 42.3893C26.8788 42.3836 27.3658 42.3191 27.84 42.1973C27.84 42.1973 30.1867 41.216 31.104 40.832C31.3598 40.7495 31.625 40.6993 31.8933 40.6827C33.408 40.6827 35.2853 42.368 37.1627 42.368C38.5767 42.0849 39.9374 41.581 41.1947 40.8747C41.4671 40.7659 41.7552 40.7011 42.048 40.6827C42.3677 40.6697 42.6868 40.7204 42.9867 40.832L43.2853 40.9813L43.9893 41.344C45.0107 41.9967 46.1909 42.3582 47.4026 42.3893C48.6311 42.3564 49.8297 42.0034 50.88 41.3653C51.4804 40.9728 52.1701 40.738 52.8853 40.6827C53.4028 40.7303 53.9055 40.8814 54.3636 41.1269C54.8217 41.3724 55.2258 41.7074 55.552 42.112C55.6635 42.2538 55.8062 42.368 55.969 42.4457C56.1318 42.5234 56.3103 42.5625 56.4907 42.56C56.7546 42.5603 57.0107 42.4699 57.216 42.304C57.452 42.1049 57.6 41.8208 57.628 41.5133C57.656 41.2058 57.5616 40.8997 57.3653 40.6613Z" />
<path d="M25.6 22.784C25.5674 22.4292 25.5674 22.0721 25.6 21.7173H6.40002V23.8507H25.6C25.5674 23.4959 25.5674 23.1388 25.6 22.784Z" />
<path d="M38.272 21.7173C38.2942 22.0725 38.2942 22.4288 38.272 22.784C38.2942 23.1392 38.2942 23.4955 38.272 23.8507H57.472V21.7173H38.272Z" />
<path d="M36.096 21.7173C36.1889 22.0655 36.2391 22.4237 36.2454 22.784C36.2454 23.9156 35.7958 25.0008 34.9957 25.801C34.1955 26.6011 33.1103 27.0507 31.9787 27.0507C30.8471 27.0507 29.7619 26.6011 28.9617 25.801C28.1616 25.0008 27.712 23.9156 27.712 22.784C27.7183 22.4237 27.7685 22.0655 27.8614 21.7173H25.6C25.5674 22.0721 25.5674 22.4292 25.6 22.784C25.6 24.4814 26.2743 26.1092 27.4745 27.3095C28.6748 28.5097 30.3026 29.184 32 29.184C33.6974 29.184 35.3253 28.5097 36.5255 27.3095C37.7257 26.1092 38.4 24.4814 38.4 22.784C38.4223 22.4288 38.4223 22.0725 38.4 21.7173H36.096Z" />
<path d="M57.5787 32.576H6.37866V34.7093H57.5787V32.576Z" />
<path d="M38.272 5.69601C37.5894 5.69601 34.4747 9.81335 32.2987 14.6987C30.8831 17.3348 30.0535 20.2456 29.8667 23.232C29.8667 23.7978 30.0915 24.3404 30.4915 24.7405C30.8916 25.1406 31.4342 25.3653 32 25.3653C32.5658 25.3653 33.1084 25.1406 33.5085 24.7405C33.9086 24.3404 34.1334 23.7978 34.1334 23.232C33.528 20.6715 33.4554 18.0138 33.92 15.424C34.8254 11.9639 36.2958 8.67704 38.272 5.69601Z" />
</g>
<defs>
<clipPath id="clip0_1795_393">
<rect width="64" height="64" />
</clipPath>
</defs>
</svg>

<svg xmlns="http://www.w3.org/2000/svg" width="64" height="64" fill="currentColor" viewBox="0 0 64 64"><g clip-path="url(#a)"><path d="M21.44 48.299a1.067 1.067 0 1 0 0-2.134 1.067 1.067 0 0 0 0 2.134M11.136 48.299a1.067 1.067 0 1 0 0-2.134 1.067 1.067 0 0 0 0 2.134M42.027 48.299a1.067 1.067 0 1 0 0-2.134 1.067 1.067 0 0 0 0 2.134M52.33 48.299a1.067 1.067 0 1 0 0-2.134 1.067 1.067 0 0 0 0 2.134M31.744 48.299a1.067 1.067 0 1 0 0-2.134 1.067 1.067 0 0 0 0 2.134M21.44 54.699a1.067 1.067 0 1 0 0-2.134 1.067 1.067 0 0 0 0 2.134M11.136 54.699a1.067 1.067 0 1 0 0-2.134 1.067 1.067 0 0 0 0 2.134M42.027 54.699a1.067 1.067 0 1 0 0-2.134 1.067 1.067 0 0 0 0 2.134M52.33 54.699a1.067 1.067 0 1 0 0-2.134 1.067 1.067 0 0 0 0 2.134M31.744 54.699a1.067 1.067 0 1 0 0-2.134 1.067 1.067 0 0 0 0 2.134M57.365 40.661a6.4 6.4 0 0 0-4.544-2.261 6.4 6.4 0 0 0-3.114.96 4.86 4.86 0 0 1-2.368.768 4.4 4.4 0 0 1-2.262-.768 6.4 6.4 0 0 0-3.221-.96c-1.301 0-3.947 1.75-4.757 1.75a4.27 4.27 0 0 1-2.134-.747l-.277-.15a5.4 5.4 0 0 0-2.795-.853 6.4 6.4 0 0 0-3.114.96 4.95 4.95 0 0 1-2.39.768 4.55 4.55 0 0 1-2.261-.768 6.4 6.4 0 0 0-3.264-.96c-1.301 0-3.968 1.75-4.779 1.75a4.27 4.27 0 0 1-2.133-.747 5.9 5.9 0 0 0-3.03-1.003 5.93 5.93 0 0 0-4.266 2.347 1.15 1.15 0 0 0 .256 1.6c.19.143.423.218.661.213a1.17 1.17 0 0 0 .96-.49 3.54 3.54 0 0 1 2.454-1.43c.668.06 1.308.296 1.856.683a6.4 6.4 0 0 0 3.306 1.045 13.5 13.5 0 0 0 4.032-1.493 3 3 0 0 1 .854-.192c.32-.017.64.034.938.149l.32.15.704.362a6.57 6.57 0 0 0 3.392 1.045c.49-.005.977-.07 1.451-.192l3.264-1.365a3.2 3.2 0 0 1 .79-.15c1.514 0 3.391 1.686 5.269 1.686a13.7 13.7 0 0 0 4.032-1.493c.272-.11.56-.174.853-.192.32-.013.639.037.939.149l.298.15.704.362a6.66 6.66 0 0 0 3.414 1.045 7.06 7.06 0 0 0 3.477-1.024c.6-.392 1.29-.627 2.005-.682a3.88 3.88 0 0 1 2.667 1.429 1.17 1.17 0 0 0 .939.448c.264 0 .52-.09.725-.256a1.174 1.174 0 0 0 .15-1.643M25.6 22.784a6 6 0 0 1 0-1.067H6.4v2.134h19.2a6 6 0 0 1 0-1.067M38.272 21.717a9 9 0 0 1 0 1.067 9 9 0 0 1 0 1.067h19.2v-2.134z"/><path d="M36.096 21.717q.14.525.15 1.067a4.267 4.267 0 0 1-8.534 0 4.4 4.4 0 0 1 .15-1.067H25.6a6 6 0 0 0 0 1.067 6.4 6.4 0 0 0 12.8 0 9 9 0 0 0 0-1.067zM57.579 32.576h-51.2v2.133h51.2z"/><path d="M38.272 5.696c-.683 0-3.797 4.117-5.973 9.003a20.8 20.8 0 0 0-2.432 8.533 2.134 2.134 0 0 0 4.266 0 19.2 19.2 0 0 1-.213-7.808 32.5 32.5 0 0 1 4.352-9.728"/></g><defs><clipPath id="a"><path d="M0 0h64v64H0z"/></clipPath></defs></svg>
